X:1
T:Gute Bäume Bringen, 11.11.11.11
T:Gute Bäume Bringen, 11.11.11.11
T:Peter Sohren (1630-1692)
T:Public Domain Courtesy of the Cyber Hymnal™
C:Peter Sohren (1630-1692)
Z:Public Domain
Z:Courtesy of the Cyber Hymnal™
%%score ( 1 2 ) ( 3 4 )
L:1/8
Q:1/4=115
M:none
K:F
V:1 treble 
V:2 treble 
V:3 bass 
V:4 bass 
V:1
|: D2 (DE) [DF]2 [DG]2 | [EA]4 [EA]4 | [Ac]2 [FA]2 [Ed]2 [E^c]2 | [Fd]8 :| %4
 [Fd]2 [Fd]2 [Ec]2 [Ec]2 | [^G=B]4 [EA]4 | [GB]2 [FA]2 G3 z x | F8 | [Gc]2 [FA]2 [EG]2 [EA]2 | %9
 [DF]4 E4 | [DA]3 [EG] [DF]2 [^CE]2 | D8 |] %12
V:2
|: D2 D2 x4 | x8 | x8 | x8 :| x8 | x8 | x4 F2 (E2 F) | F8 | x8 | x4 E4 | x8 | D8 |] %12
V:3
|: [D,F,]2 (F,G,) [D,A,]2 [B,,D]2 | [A,,D]4 [A,,^C]4 | [F,C]2 [A,C]2 [G,B,]2 A,2 | [D,A,]8 :| %4
 [D,A,]2 [D,A,]2 A,2 A,2 | (E2 D2) [A,C]4 | [G,,D]2 [A,,C]2 [B,,D]2 [C,B,]2 x | [F,A,]8 | %8
 [E,G,]2 [F,A,]2 [C,C]2 [A,,C]2 | (A,2 =B,2) [A,,^C]4 | [F,,D]3 [G,,B,] [A,,A,]2 [A,,G,]2 | %11
 [D,F,]8 |] %12
V:4
|: x2 D,2 x4 | x8 | x6 A,2 | x8 :| x4 (A,,=B,,) (C,D,) | E,4 x4 | x9 | x8 | x8 | D,4 x4 | x8 | %11
 x8 |] %12

